X: 2606
T: Old Nick's Lumber Room
P: Roxburgh Quick Step
C:Trad.
R:Jig (8x32)
B:RSCDS 26-6
Z:Anselm Lingnau <anselm@strathspey.org>
M:6/8
L:1/8
K:D
A,|"D"D3 FEF|A2 d F2 F|"Em"G2 B "G"E2 D|"A"CEA A,B,C|\
   "D"D3 FEF|A2 d F2 F|
                       "G"GBA "Em"GFE|"A"E3 "D"D2:|\
A |"D"d3 fdf|a2 a f2 d|A2 d "Em"G2 A|"A"GEE E2 A|
   "D"d3 fdf|a2 a "Bm"fed|"E"Bdc BA^G|"A7"ABA =GFE|\
   "D"D3 FEF|A2 d F2 F|
                       "Em"G2 B "G"E2 D|"A"CEA A,B,C|\
   "D"D3 FEF|A2 d F2 F|"G"GBA "Em"GFE|"A"E3 "D"D2|]
%%center Book26/2606-Old_Nicks_Lumber_Room-AL.abc

%%sep 1 1 500
%%sep 1 1 500

